!!!OTL: WIR HABEN UNS BESONNEN
!!!ARE: Europa, Mitteleuropa, Deutschland
!!!SCT: Z0232
!!!YEM: Copyright 1995, estate of Helmut Schaffrath.
**kern
*ICvox
*Ivox
*M3/4
*k[f#]
*G:
{8g
8b
=1
8.dd
16ee
4dd
4cc
=2
4.b
8cc
4dd}
=3
{8dd
8dd
8ee
8dd
8cc
8b
=4
4a
4f#
4d}
=5
{8dd
16dd
16ee
8dd
8cc
4b
=6
8dd
8ee
8dd
8cc
4b}
=7
{8a
8a
8a
8a
8g
8a
=8
4cc
4b}
==
!!!AGN: Schiffer -, Handwerker - Lied
!! Reiselied
!!!ONB: ESAC (Essen Associative Code) Database: ZUCCAL
!!!AMT: simple triple
!!!AIN: vox
!!!EED: Helmut Schaffrath
!!!EEV: 1.0
*-
